X:225
T:Buffalo Girls
Z:Jack Campin, http://www.campin.me.uk/
F:Jack Campin's Nine-Note Tunebook
% last edit 03-02-2013
M:C|
L:1/8
Q:1/2=114
K:D
A2|D2D2 FFA2|B2A2 F4  |A2G2 E4  |B2A2 F2
A2|D2DD F2A2|B2A2 F2F2|A2A2 GGE2|D6    :|
z2|ddc2 B2AA|BA2A F4  |AG2G E4  |BA2A F4|
   ddc2 B2AA|BA2A F2AA|c2AA GGE2|D6    :|

